X: 1
T: Pumpkin Vine (1)
C: trad. US
O: from Jimmy Wheeler, Alfred Bailey
R: two-step
Z: Andrew Kuntz
B: Phillips "Traditional American Fiddle Tunes" v.2, 1995; p.105
S: https://tunearch.org/wiki/Pumpkin_Vine_(1)
S: https://www.facebook.com/groups/Fiddletuneoftheday/ 2020-10-31
S: https://www.facebook.com/groups/Fiddletuneoftheday/photos/
M: C|
L: 1/8
K: G
Bc \
| d2g2- gfga | g3(d/c/ B2)d2 | c4 e3f | e2d2c2 (B/c/B) |\
| A2f3 efg | fedc BAFD | G2g3 fga | g2-g (d/c/ B2)c2 |
| d2(g2 g)fga | g3(d B2)d2 | [c4e4] e3f | e2d2c2 (B/c/B) |\
| A2f3 efg | fedc BAFD | G2g3 fga | g4 |]
d2c2 \
| [G4B4]-[G2B2]Bc | BAGB A2B2 | [E4c4]- [E2c2][Ec]-[Ed]- | [E2c2] [E2B2][E2c2](B/c/B) |\
| A2f3e fg | fedc (BA)(FD) | G2g3(f g)a | g4 d2c2 |
| [G4B4]-[G2B2]Bc | B2G2 A2B2 | [E4c4]- [E2c2] [Ec]-[Ed]- | [E2c2]- [E2B2] [E2c2](B/c/B) |\
| A2f3e fg | fedc (BA)(FD) | G2g3(f g)a | g6 |]
